;Generated with Cura_SteamEngine DEV

;Layer count: 9
;LAYER:0
M107
G1 F1800 E-0.50000
G0 F12000 X88.302 Y42.421 Z1.020
;TYPE:WALL-INNER
G1 F1800 E0.00000
G1 F840 X115.304 Y42.421 E5.40403
G1 X115.304 Y114.420 E14.40948
G1 X88.302 Y114.420 E5.40403
G1 X88.302 Y42.421 E14.40948
G0 F12000 X87.302 Y41.421
;TYPE:WALL-OUTER
G1 F840 X116.304 Y41.421 E5.80430
G1 X116.304 Y115.420 E14.80975
G1 X87.302 Y115.420 E5.80430
G1 X87.302 Y41.421 E14.80975
G0 F12000 X87.902 Y41.931
G0 X88.782 Y42.820
;TYPE:FILL
G1 F840 X114.903 Y68.941 E5.91448
G0 F12000 X114.903 Y70.355
G1 F840 X88.700 Y44.153 E5.93294
G0 F12000 X88.700 Y45.567
G1 F840 X114.903 Y71.769 E5.93294
G0 F12000 X114.903 Y73.184
G1 F840 X88.700 Y46.981 E5.93305
G0 F12000 X88.700 Y48.395
G1 F840 X114.903 Y74.598 E5.93305
G0 F12000 X114.903 Y76.012
G1 F840 X88.700 Y49.810 E5.93294
G0 F12000 X88.700 Y51.224
G1 F840 X114.903 Y77.426 E5.93294
G0 F12000 X114.903 Y78.840
G1 F840 X88.700 Y52.638 E5.93294
G0 F12000 X88.700 Y54.052
G1 F840 X114.903 Y80.255 E5.93305
G0 F12000 X114.903 Y81.669
G1 F840 X88.700 Y55.466 E5.93305
G0 F12000 X88.700 Y56.881
G1 F840 X114.903 Y83.083 E5.93294
G0 F12000 X114.903 Y84.497
G1 F840 X88.700 Y58.295 E5.93294
G0 F12000 X88.700 Y59.709
G1 F840 X114.903 Y85.912 E5.93305
G0 F12000 X114.903 Y87.326
G1 F840 X88.700 Y61.123 E5.93305
G0 F12000 X88.700 Y62.537
G1 F840 X114.903 Y88.740 E5.93305
G0 F12000 X114.903 Y90.154
G1 F840 X88.700 Y63.952 E5.93294
G0 F12000 X88.700 Y65.366
G1 F840 X114.903 Y91.568 E5.93294
G0 F12000 X114.903 Y92.983
G1 F840 X88.700 Y66.780 E5.93305
G0 F12000 X88.700 Y68.194
G1 F840 X114.903 Y94.397 E5.93305
G0 F12000 X114.903 Y95.811
G1 F840 X88.700 Y69.609 E5.93294
G0 F12000 X88.700 Y71.023
G1 F840 X114.903 Y97.225 E5.93294
G0 F12000 X114.903 Y98.639
G1 F840 X88.700 Y72.437 E5.93294
G0 F12000 X88.700 Y73.851
G1 F840 X114.903 Y100.054 E5.93305
G0 F12000 X114.903 Y101.468
G1 F840 X88.700 Y75.265 E5.93305
G0 F12000 X88.700 Y76.680
G1 F840 X114.903 Y102.882 E5.93294
G0 F12000 X114.903 Y104.296
G1 F840 X88.700 Y78.094 E5.93294
G0 F12000 X88.701 Y79.509
G1 F840 X114.903 Y105.711 E5.93282
G0 F12000 X114.903 Y107.125
G1 F840 X88.701 Y80.923 E5.93282
G0 F12000 X88.701 Y82.337
G1 F840 X114.903 Y108.539 E5.93282
G0 F12000 X114.903 Y109.953
G1 F840 X88.701 Y83.751 E5.93282
G0 F12000 X88.701 Y85.166
G1 F840 X114.903 Y111.367 E5.93271
G0 F12000 X114.903 Y112.782
G1 F840 X88.701 Y86.580 E5.93282
G0 F12000 X88.701 Y87.994
G1 F840 X114.726 Y114.019 E5.89274
G0 F12000 X113.312 Y114.019
G1 F840 X88.701 Y89.408 E5.57258
G0 F12000 X88.701 Y90.822
G1 F840 X111.898 Y114.019 E5.25241
G0 F12000 X110.484 Y114.019
G1 F840 X88.701 Y92.237 E4.93213
G0 F12000 X88.701 Y93.651
G1 F840 X109.069 Y114.019 E4.61185
G0 F12000 X107.655 Y114.019
G1 F840 X88.701 Y95.065 E4.29168
G0 F12000 X88.701 Y96.479
G1 F840 X106.241 Y114.019 E3.97152
G0 F12000 X104.827 Y114.019
G1 F840 X88.701 Y97.893 E3.65135
G0 F12000 X88.701 Y99.308
G1 F840 X103.412 Y114.019 E3.33096
G0 F12000 X101.998 Y114.019
G1 F840 X88.701 Y100.722 E3.01079
G0 F12000 X88.701 Y102.136
G1 F840 X100.584 Y114.019 E2.69062
G0 F12000 X99.170 Y114.019
G1 F840 X88.701 Y103.550 E2.37046
G0 F12000 X88.701 Y104.965
G1 F840 X97.756 Y114.019 E2.05018
G0 F12000 X96.341 Y114.019
G1 F840 X88.701 Y106.379 E1.72990
G0 F12000 X88.701 Y107.793
G1 F840 X94.927 Y114.019 E1.40973
G0 F12000 X93.513 Y114.019
G1 F840 X88.701 Y109.207 E1.08956
G0 F12000 X88.701 Y110.621
G1 F840 X92.099 Y114.019 E0.76940
G0 F12000 X90.685 Y114.019
G1 F840 X88.701 Y112.036 E0.44912
G0 F12000 X88.701 Y113.450
G1 F840 X89.270 Y114.019 E0.12884
G0 F12000 X114.903 Y67.527
G1 F840 X90.197 Y42.820 E5.59420
G0 F12000 X91.611 Y42.820
G1 F840 X114.903 Y66.113 E5.27403
G0 F12000 X114.903 Y64.698
G1 F840 X93.025 Y42.820 E4.95375
G0 F12000 X94.439 Y42.820
G1 F840 X114.903 Y63.284 E4.63359
G0 F12000 X114.903 Y61.870
G1 F840 X95.853 Y42.820 E4.31342
G0 F12000 X97.268 Y42.820
G1 F840 X114.903 Y60.456 E3.99314
G0 F12000 X114.903 Y59.042
G1 F840 X98.682 Y42.820 E3.67297
G0 F12000 X100.096 Y42.820
G1 F840 X114.903 Y57.627 E3.35269
G0 F12000 X114.903 Y56.213
G1 F840 X101.510 Y42.820 E3.03253
G0 F12000 X102.925 Y42.820
G1 F840 X114.903 Y54.799 E2.71225
G0 F12000 X114.903 Y53.385
G1 F840 X104.339 Y42.820 E2.39208
G0 F12000 X105.753 Y42.820
G1 F840 X114.903 Y51.970 E2.07180
G0 F12000 X114.903 Y50.556
G1 F840 X107.167 Y42.820 E1.75163
G0 F12000 X108.581 Y42.820
G1 F840 X114.903 Y49.142 E1.43147
G0 F12000 X114.903 Y47.728
G1 F840 X109.996 Y42.820 E1.11119
G0 F12000 X111.410 Y42.820
G1 F840 X114.903 Y46.314 E0.79102
G0 F12000 X114.903 Y44.899
G1 F840 X112.824 Y42.820 E0.47074
G0 F12000 X114.238 Y42.820
G1 F840 X114.903 Y43.485 E0.15057
;LAYER:1
M106 S127
G0 F12000 X115.604 Y42.121 Z1.320
;TYPE:WALL-INNER
G1 F1320 X115.604 Y114.720 E17.43548
G1 X88.002 Y114.720 E6.62893
G1 X88.002 Y42.121 E17.43548
G1 X115.604 Y42.121 E6.62893
G0 F12000 X116.404 Y41.321
;TYPE:WALL-OUTER
G1 F1320 X116.404 Y115.520 E17.81973
G1 X87.202 Y115.520 E7.01319
G1 X87.202 Y41.321 E17.81973
G1 X116.404 Y41.321 E7.01319
G0 F12000 X115.904 Y41.731
G0 X115.283 Y42.543
;TYPE:FILL
G1 F1320 X88.321 Y69.504 E9.15719
G0 F12000 X88.321 Y70.635
G1 F1320 X115.283 Y43.674 E9.15719
G0 F12000 X115.283 Y44.805
G1 F1320 X88.321 Y71.767 E9.15736
G0 F12000 X88.321 Y72.898
G1 F1320 X115.283 Y45.937 E9.15719
G0 F12000 X115.283 Y47.068
G1 F1320 X88.321 Y74.029 E9.15719
G0 F12000 X88.321 Y75.161
G1 F1320 X115.283 Y48.199 E9.15736
G0 F12000 X115.283 Y49.331
G1 F1320 X88.321 Y76.292 E9.15719
G0 F12000 X88.321 Y77.423
G1 F1320 X115.283 Y50.462 E9.15719
G0 F12000 X115.283 Y51.594
G1 F1320 X88.322 Y78.554 E9.15685
G0 F12000 X88.322 Y79.685
G1 F1320 X115.283 Y52.725 E9.15685
G0 F12000 X115.283 Y53.856
G1 F1320 X88.322 Y80.817 E9.15702
G0 F12000 X88.322 Y81.948
G1 F1320 X115.283 Y54.988 E9.15685
G0 F12000 X115.283 Y56.119
G1 F1320 X88.322 Y83.080 E9.15702
G0 F12000 X88.322 Y84.211
G1 F1320 X115.283 Y57.250 E9.15702
G0 F12000 X115.283 Y58.382
G1 F1320 X88.322 Y85.342 E9.15685
G0 F12000 X88.322 Y86.474
G1 F1320 X115.283 Y59.513 E9.15702
G0 F12000 X114.253 Y42.441
G1 F1320 X88.321 Y68.372 E8.80736
G0 F12000 X88.321 Y67.241
G1 F1320 X113.122 Y42.441 E8.42323
G0 F12000 X111.990 Y42.441
G1 F1320 X88.321 Y66.110 E8.03893
G0 F12000 X88.321 Y64.978
G1 F1320 X110.859 Y42.441 E7.65462
G0 F12000 X109.728 Y42.441
G1 F1320 X88.321 Y63.847 E7.27049
G0 F12000 X88.321 Y62.716
G1 F1320 X108.596 Y42.441 E6.88619
G0 F12000 X107.465 Y42.441
G1 F1320 X88.321 Y61.584 E6.50189
G0 F12000 X88.321 Y60.453
G1 F1320 X106.334 Y42.441 E6.11776
G0 F12000 X105.202 Y42.441
G1 F1320 X88.321 Y59.322 E5.73345
G0 F12000 X88.321 Y58.190
G1 F1320 X104.071 Y42.441 E5.34915
G0 F12000 X102.939 Y42.441
G1 F1320 X88.321 Y57.059 E4.96485
G0 F12000 X88.321 Y55.927
G1 F1320 X101.808 Y42.441 E4.58055
G0 F12000 X100.677 Y42.441
G1 F1320 X88.321 Y54.796 E4.19642
G0 F12000 X88.321 Y53.665
G1 F1320 X99.545 Y42.441 E3.81211
G0 F12000 X98.414 Y42.441
G1 F1320 X88.321 Y52.533 E3.42781
G0 F12000 X88.321 Y51.402
G1 F1320 X97.283 Y42.441 E3.04368
G0 F12000 X96.151 Y42.441
G1 F1320 X88.321 Y50.271 E2.65938
G0 F12000 X88.321 Y49.139
G1 F1320 X95.020 Y42.441 E2.27508
G0 F12000 X93.888 Y42.441
G1 F1320 X88.321 Y48.008 E1.89077
G0 F12000 X88.321 Y46.876
G1 F1320 X92.757 Y42.441 E1.50647
G0 F12000 X91.626 Y42.441
G1 F1320 X88.321 Y45.745 E1.12234
G0 F12000 X88.321 Y44.614
G1 F1320 X90.494 Y42.441 E0.73804
G0 F12000 X89.363 Y42.441
G1 F1320 X88.321 Y43.482 E0.35373
G0 F12000 X115.283 Y60.645
G1 F1320 X88.322 Y87.605 E9.15685
G0 F12000 X88.322 Y88.736
G1 F1320 X115.283 Y61.776 E9.15685
G0 F12000 X115.283 Y62.907
G1 F1320 X88.322 Y89.868 E9.15702
G0 F12000 X88.322 Y90.999
G1 F1320 X115.283 Y64.039 E9.15685
G0 F12000 X115.283 Y65.170
G1 F1320 X88.322 Y92.131 E9.15702
G0 F12000 X88.322 Y93.262
G1 F1320 X115.283 Y66.301 E9.15702
G0 F12000 X115.283 Y67.433
G1 F1320 X88.322 Y94.393 E9.15685
G0 F12000 X88.322 Y95.525
G1 F1320 X115.283 Y68.564 E9.15702
G0 F12000 X115.283 Y69.695
G1 F1320 X88.322 Y96.656 E9.15702
G0 F12000 X88.322 Y97.787
G1 F1320 X115.283 Y70.827 E9.15685
G0 F12000 X115.283 Y71.958
G1 F1320 X88.322 Y98.919 E9.15702
G0 F12000 X88.322 Y100.050
G1 F1320 X115.283 Y73.090 E9.15685
G0 F12000 X115.283 Y74.221
G1 F1320 X88.322 Y101.182 E9.15702
G0 F12000 X88.322 Y102.313
G1 F1320 X115.283 Y75.352 E9.15702
G0 F12000 X115.283 Y76.484
G1 F1320 X88.322 Y103.444 E9.15685
G0 F12000 X88.322 Y104.576
G1 F1320 X115.283 Y77.615 E9.15702
G0 F12000 X115.283 Y78.746
G1 F1320 X88.322 Y105.707 E9.15702
G0 F12000 X88.322 Y106.838
G1 F1320 X115.283 Y79.878 E9.15685
G0 F12000 X115.283 Y81.009
G1 F1320 X88.322 Y107.970 E9.15702
G0 F12000 X88.322 Y109.101
G1 F1320 X115.283 Y82.141 E9.15685
G0 F12000 X115.283 Y83.272
G1 F1320 X88.322 Y110.232 E9.15685
G0 F12000 X88.322 Y111.364
G1 F1320 X115.283 Y84.403 E9.15702
G0 F12000 X115.283 Y85.535
G1 F1320 X88.322 Y112.495 E9.15685
G0 F12000 X88.322 Y113.627
G1 F1320 X115.283 Y86.666 E9.15702
G0 F12000 X115.283 Y87.797
G1 F1320 X88.681 Y114.399 E9.03509
G0 F12000 X89.812 Y114.399
G1 F1320 X115.283 Y88.929 E8.65079
G0 F12000 X115.283 Y90.060
G1 F1320 X90.943 Y114.399 E8.26665
G0 F12000 X92.075 Y114.399
G1 F1320 X115.283 Y91.192 E7.88218
G0 F12000 X115.283 Y92.323
G1 F1320 X93.206 Y114.399 E7.49805
G0 F12000 X94.337 Y114.399
G1 F1320 X115.283 Y93.454 E7.11392
G0 F12000 X115.283 Y94.586
G1 F1320 X95.469 Y114.399 E6.72945
G0 F12000 X96.600 Y114.399
G1 F1320 X115.283 Y95.717 E6.34531
G0 F12000 X115.283 Y96.848
G1 F1320 X97.732 Y114.399 E5.96101
G0 F12000 X98.863 Y114.399
G1 F1320 X115.283 Y97.980 E5.57671
G0 F12000 X115.283 Y99.111
G1 F1320 X99.994 Y114.399 E5.19258
G0 F12000 X101.126 Y114.399
G1 F1320 X115.283 Y100.242 E4.80828
G0 F12000 X115.283 Y101.374
G1 F1320 X102.257 Y114.399 E4.42397
G0 F12000 X103.388 Y114.399
G1 F1320 X115.283 Y102.505 E4.03984
G0 F12000 X115.283 Y103.637
G1 F1320 X104.520 Y114.399 E3.65537
G0 F12000 X105.651 Y114.399
G1 F1320 X115.283 Y104.768 E3.27124
G0 F12000 X115.283 Y105.899
G1 F1320 X106.783 Y114.399 E2.88694
G0 F12000 X107.914 Y114.399
G1 F1320 X115.283 Y107.031 E2.50263
G0 F12000 X115.283 Y108.162
G1 F1320 X109.045 Y114.399 E2.11850
G0 F12000 X110.177 Y114.399
G1 F1320 X115.283 Y109.293 E1.73420
G0 F12000 X115.283 Y110.425
G1 F1320 X111.308 Y114.399 E1.34990
G0 F12000 X112.439 Y114.399
G1 F1320 X115.283 Y111.556 E0.96576
G0 F12000 X115.283 Y112.688
G1 F1320 X113.571 Y114.399 E0.58129
G0 F12000 X114.702 Y114.399
G1 F1320 X115.283 Y113.819 E0.19716
;LAYER:2
M106 S255
G0 F12000 X115.604 Y114.720 Z1.620
;TYPE:WALL-INNER
G1 F1800 X88.002 Y114.720 E6.62893
G1 X88.002 Y42.121 E17.43548
G1 X115.604 Y42.121 E6.62893
G1 X115.604 Y114.720 E17.43548
G0 F12000 X116.404 Y115.520
;TYPE:WALL-OUTER
G1 F1800 X87.202 Y115.520 E7.01319
G1 X87.202 Y41.321 E17.81973
G1 X116.404 Y41.321 E7.01319
G1 X116.404 Y115.520 E17.81973
G0 F12000 X115.904 Y115.110
G0 X115.283 Y109.627
;TYPE:FILL
G1 F1800 X88.321 Y82.665 E9.15736
G0 F12000 X88.322 Y87.039
G1 F1800 X115.283 Y60.079 E9.15685
G0 F12000 X115.283 Y64.372
G1 F1800 X93.352 Y42.441 E7.44863
G0 F12000 X98.980 Y42.441
G1 F1800 X88.321 Y53.099 E3.62005
G0 F12000 X88.321 Y48.723
G1 F1800 X115.283 Y75.685 E9.15736
G0 F12000 X115.283 Y71.393
G1 F1800 X88.322 Y98.353 E9.15685
G0 F12000 X88.321 Y93.978
G1 F1800 X108.742 Y114.399 E6.93578
G0 F12000 X106.217 Y114.399
G1 F1800 X115.283 Y105.334 E3.07900
G0 F12000 X115.283 Y98.313
G1 F1800 X88.321 Y71.350 E9.15753
G0 F12000 X88.321 Y75.726
G1 F1800 X115.283 Y48.765 E9.15719
G0 F12000 X115.283 Y53.058
G1 F1800 X104.666 Y42.441 E3.60595
G0 F12000 X110.293 Y42.441
G1 F1800 X88.321 Y64.413 E7.46256
G0 F12000 X88.321 Y60.036
G1 F1800 X115.283 Y86.999 E9.15753
G0 F12000 X115.283 Y82.706
G1 F1800 X88.322 Y109.667 E9.15702
G0 F12000 X88.321 Y105.292
G1 F1800 X97.428 Y114.399 E3.09310
G0 F12000 X94.903 Y114.399
G1 F1800 X115.283 Y94.020 E6.92168
;LAYER:3
G0 F12000 X115.604 Y114.720 Z1.920
;TYPE:WALL-INNER
G1 F1800 X88.002 Y114.720 E6.62893
G1 X88.002 Y42.121 E17.43548
G1 X115.604 Y42.121 E6.62893
G1 X115.604 Y114.720 E17.43548
G0 F12000 X116.404 Y115.520
;TYPE:WALL-OUTER
G1 F1800 X87.202 Y115.520 E7.01319
G1 X87.202 Y41.321 E17.81973
G1 X116.404 Y41.321 E7.01319
G1 X116.404 Y115.520 E17.81973
G0 F12000 X115.904 Y115.110
G0 X115.283 Y109.627
;TYPE:FILL
G1 F1800 X88.321 Y82.665 E9.15736
G0 F12000 X88.322 Y87.039
G1 F1800 X115.283 Y60.079 E9.15685
G0 F12000 X115.283 Y64.372
G1 F1800 X93.352 Y42.441 E7.44863
G0 F12000 X98.980 Y42.441
G1 F1800 X88.321 Y53.099 E3.62005
G0 F12000 X88.321 Y48.723
G1 F1800 X115.283 Y75.685 E9.15736
G0 F12000 X115.283 Y71.393
G1 F1800 X88.322 Y98.353 E9.15685
G0 F12000 X88.321 Y93.978
G1 F1800 X108.742 Y114.399 E6.93578
G0 F12000 X106.217 Y114.399
G1 F1800 X115.283 Y105.334 E3.07900
G0 F12000 X115.283 Y98.313
G1 F1800 X88.321 Y71.350 E9.15753
G0 F12000 X88.321 Y75.726
G1 F1800 X115.283 Y48.765 E9.15719
G0 F12000 X115.283 Y53.058
G1 F1800 X104.666 Y42.441 E3.60595
G0 F12000 X110.293 Y42.441
G1 F1800 X88.321 Y64.413 E7.46256
G0 F12000 X88.321 Y60.036
G1 F1800 X115.283 Y86.999 E9.15753
G0 F12000 X115.283 Y82.706
G1 F1800 X88.322 Y109.667 E9.15702
G0 F12000 X88.321 Y105.292
G1 F1800 X97.428 Y114.399 E3.09310
G0 F12000 X94.903 Y114.399
G1 F1800 X115.283 Y94.020 E6.92168
;LAYER:4
G0 F12000 X115.604 Y114.720 Z2.220
;TYPE:WALL-INNER
G1 F1800 X88.002 Y114.720 E6.62893
G1 X88.002 Y42.121 E17.43548
G1 X115.604 Y42.121 E6.62893
G1 X115.604 Y114.720 E17.43548
G0 F12000 X116.404 Y115.520
;TYPE:WALL-OUTER
G1 F1800 X87.202 Y115.520 E7.01319
G1 X87.202 Y41.321 E17.81973
G1 X116.404 Y41.321 E7.01319
G1 X116.404 Y115.520 E17.81973
G0 F12000 X115.904 Y115.110
G0 X115.283 Y109.627
;TYPE:FILL
G1 F1800 X88.321 Y82.665 E9.15736
G0 F12000 X88.322 Y87.039
G1 F1800 X115.283 Y60.079 E9.15685
G0 F12000 X115.283 Y64.372
G1 F1800 X93.352 Y42.441 E7.44863
G0 F12000 X98.980 Y42.441
G1 F1800 X88.321 Y53.099 E3.62005
G0 F12000 X88.321 Y48.723
G1 F1800 X115.283 Y75.685 E9.15736
G0 F12000 X115.283 Y71.393
G1 F1800 X88.322 Y98.353 E9.15685
G0 F12000 X88.321 Y93.978
G1 F1800 X108.742 Y114.399 E6.93578
G0 F12000 X106.217 Y114.399
G1 F1800 X115.283 Y105.334 E3.07900
G0 F12000 X115.283 Y98.313
G1 F1800 X88.321 Y71.350 E9.15753
G0 F12000 X88.321 Y75.726
G1 F1800 X115.283 Y48.765 E9.15719
G0 F12000 X115.283 Y53.058
G1 F1800 X104.666 Y42.441 E3.60595
G0 F12000 X110.293 Y42.441
G1 F1800 X88.321 Y64.413 E7.46256
G0 F12000 X88.321 Y60.036
G1 F1800 X115.283 Y86.999 E9.15753
G0 F12000 X115.283 Y82.706
G1 F1800 X88.322 Y109.667 E9.15702
G0 F12000 X88.321 Y105.292
G1 F1800 X97.428 Y114.399 E3.09310
G0 F12000 X94.903 Y114.399
G1 F1800 X115.283 Y94.020 E6.92168
;LAYER:5
G0 F12000 X115.604 Y114.720 Z2.520
;TYPE:WALL-INNER
G1 F1800 X88.002 Y114.720 E6.62893
G1 X88.002 Y42.121 E17.43548
G1 X115.604 Y42.121 E6.62893
G1 X115.604 Y114.720 E17.43548
G0 F12000 X116.404 Y115.520
;TYPE:WALL-OUTER
G1 F1800 X87.202 Y115.520 E7.01319
G1 X87.202 Y41.321 E17.81973
G1 X116.404 Y41.321 E7.01319
G1 X116.404 Y115.520 E17.81973
G0 F12000 X115.904 Y115.110
G0 X115.283 Y109.627
;TYPE:FILL
G1 F1800 X88.321 Y82.665 E9.15736
G0 F12000 X88.322 Y87.039
G1 F1800 X115.283 Y60.079 E9.15685
G0 F12000 X115.283 Y64.372
G1 F1800 X93.352 Y42.441 E7.44863
G0 F12000 X98.980 Y42.441
G1 F1800 X88.321 Y53.099 E3.62005
G0 F12000 X88.321 Y48.723
G1 F1800 X115.283 Y75.685 E9.15736
G0 F12000 X115.283 Y71.393
G1 F1800 X88.322 Y98.353 E9.15685
G0 F12000 X88.321 Y93.978
G1 F1800 X108.742 Y114.399 E6.93578
G0 F12000 X106.217 Y114.399
G1 F1800 X115.283 Y105.334 E3.07900
G0 F12000 X115.283 Y98.313
G1 F1800 X88.321 Y71.350 E9.15753
G0 F12000 X88.321 Y75.726
G1 F1800 X115.283 Y48.765 E9.15719
G0 F12000 X115.283 Y53.058
G1 F1800 X104.666 Y42.441 E3.60595
G0 F12000 X110.293 Y42.441
G1 F1800 X88.321 Y64.413 E7.46256
G0 F12000 X88.321 Y60.036
G1 F1800 X115.283 Y86.999 E9.15753
G0 F12000 X115.283 Y82.706
G1 F1800 X88.322 Y109.667 E9.15702
G0 F12000 X88.321 Y105.292
G1 F1800 X97.428 Y114.399 E3.09310
G0 F12000 X94.903 Y114.399
G1 F1800 X115.283 Y94.020 E6.92168
;LAYER:6
G0 F12000 X115.604 Y114.720 Z2.820
;TYPE:WALL-INNER
G1 F1800 X88.002 Y114.720 E6.62893
