; generated by Slic3r 1.0.0 on 2014-06-23 at 14:31:54

; layer_height = 0.30
; perimeters = 2
; top_solid_layers = 4
; bottom_solid_layers = 4
; fill_density = 0.20
; perimeter_speed = 35
; infill_speed = 40
; travel_speed = 200
; nozzle_diameter = 0.30
; filament_diameter = 1.13
; extrusion_multiplier = 1
; perimeters extrusion width = 0.80mm
; infill extrusion width = 0.80mm
; solid infill extrusion width = 0.80mm
; top infill extrusion width = 0.50mm
; first layer extrusion width = 0.80mm

G21 ; set units to millimeters
M104 S200 T0 ; set temperature
M104 S200 T1 ; set temperature

M109 S200 T0 ; wait for temperature to be reached
M109 S200 T1 ; wait for temperature to be reached
G90 ; use absolute coordinates
M83 ; use relative distances for extrusion
T0 ; change extruder
M106 S153 ; enable fan
G1 Z0.200 F12000.000 ; move to next layer (0)
G1 F1200.000 E-0.05000 ; retract
G1 X97.450 Y60.813 F12000.000 ; move to first skirt point
G1 E0.30000 F1200.000 ; compensate retraction
G1 X98.190 Y59.643 E0.22087 F1080 ; skirt
G1 X99.170 Y58.653 E0.22224 ; skirt
G1 X100.350 Y57.913 E0.22222 ; skirt
G1 X101.660 Y57.463 E0.22099 ; skirt
G1 X103.040 Y57.303 E0.22164 ; skirt
G1 X122.950 Y57.303 E3.17647 ; skirt
G1 X124.330 Y57.463 E0.22164 ; skirt
G1 X125.640 Y57.913 E0.22099 ; skirt
G1 X126.820 Y58.653 E0.22222 ; skirt
G1 X127.800 Y59.633 E0.22111 ; skirt
G1 X128.540 Y60.813 E0.22222 ; skirt
G1 X128.990 Y62.123 E0.22099 ; skirt
G1 X129.150 Y63.503 E0.22164 ; skirt
G1 X129.150 Y86.483 E3.66626 ; skirt
G1 X128.990 Y87.863 E0.22164 ; skirt
G1 X128.540 Y89.173 E0.22099 ; skirt
G1 X127.800 Y90.353 E0.22222 ; skirt
G1 X126.820 Y91.333 E0.22111 ; skirt
G1 X125.640 Y92.073 E0.22222 ; skirt
G1 X124.330 Y92.523 E0.22099 ; skirt
G1 X122.950 Y92.683 E0.22164 ; skirt
G1 X103.050 Y92.683 E3.17487 ; skirt
G1 X101.670 Y92.523 E0.22164 ; skirt
G1 X100.360 Y92.073 E0.22099 ; skirt
G1 X99.190 Y91.333 E0.22087 ; skirt
G1 X98.200 Y90.353 E0.22224 ; skirt
G1 X97.460 Y89.173 E0.22222 ; skirt
G1 X97.010 Y87.863 E0.22099 ; skirt
G1 X96.850 Y86.483 E0.22164 ; skirt
G1 X96.840 Y63.503 E3.66626 ; skirt
G1 X96.990 Y62.123 E0.22146 ; skirt
G1 X97.410 Y60.926 E0.20236 ; skirt
G1 X98.170 Y61.163 F12000.000 ; move to first skirt point
G1 X98.820 Y60.133 E0.19431 F1080 ; skirt
G1 X99.670 Y59.283 E0.19178 ; skirt
G1 X100.700 Y58.643 E0.19347 ; skirt
G1 X101.840 Y58.243 E0.19275 ; skirt
G1 X103.040 Y58.103 E0.19275 ; skirt
G1 X122.950 Y58.103 E3.17647 ; skirt
G1 X124.150 Y58.243 E0.19275 ; skirt
G1 X125.290 Y58.633 E0.19223 ; skirt
G1 X126.320 Y59.283 E0.19431 ; skirt
G1 X127.170 Y60.133 E0.19178 ; skirt
G1 X127.820 Y61.163 E0.19431 ; skirt
G1 X128.210 Y62.303 E0.19223 ; skirt
G1 X128.350 Y63.503 E0.19275 ; skirt
G1 X128.350 Y86.483 E3.66626 ; skirt
G1 X128.210 Y87.683 E0.19275 ; skirt
G1 X127.820 Y88.823 E0.19223 ; skirt
G1 X127.170 Y89.853 E0.19431 ; skirt
G1 X126.320 Y90.703 E0.19178 ; skirt
G1 X125.290 Y91.353 E0.19431 ; skirt
G1 X124.150 Y91.743 E0.19223 ; skirt
G1 X122.950 Y91.883 E0.19275 ; skirt
G1 X103.050 Y91.883 E3.17487 ; skirt
G1 X101.850 Y91.743 E0.19275 ; skirt
G1 X100.710 Y91.353 E0.19223 ; skirt
G1 X99.680 Y90.703 E0.19431 ; skirt
G1 X98.830 Y89.853 E0.19178 ; skirt
G1 X98.190 Y88.823 E0.19347 ; skirt
G1 X97.790 Y87.683 E0.19275 ; skirt
G1 X97.650 Y86.483 E0.19275 ; skirt
G1 X97.640 Y63.503 E3.66626 ; skirt
G1 X97.770 Y62.303 E0.19257 ; skirt
G1 X98.130 Y61.276 E0.17360 ; skirt
G1 F1200.000 E-0.05000 ; retract for tool change
T1 ; change extruder
G1 X99.060 Y61.203 F12000.000 ; move to first skirt point
G1 X99.790 Y60.253 E0.19114 F1080 ; skirt
G1 X100.740 Y59.523 E0.19114 ; skirt
G1 X101.850 Y59.063 E0.19170 ; skirt
G1 X103.040 Y58.903 E0.19156 ; skirt
G1 X122.950 Y58.903 E3.17647 ; skirt
G1 X124.140 Y59.063 E0.19156 ; skirt
G1 X125.250 Y59.523 E0.19170 ; skirt
G1 X126.200 Y60.253 E0.19114 ; skirt
G1 X126.930 Y61.203 E0.19114 ; skirt
G1 X127.390 Y62.313 E0.19170 ; skirt
G1 X127.550 Y63.503 E0.19156 ; skirt
G1 X127.550 Y86.483 E3.66626 ; skirt
G1 X127.390 Y87.673 E0.19156 ; skirt
G1 X126.930 Y88.783 E0.19170 ; skirt
G1 X126.200 Y89.733 E0.19114 ; skirt
G1 X125.250 Y90.463 E0.19114 ; skirt
G1 X124.140 Y90.923 E0.19170 ; skirt
G1 X122.950 Y91.083 E0.19156 ; skirt
G1 X103.050 Y91.083 E3.17487 ; skirt
G1 X101.860 Y90.923 E0.19156 ; skirt
G1 X100.750 Y90.463 E0.19170 ; skirt
G1 X99.800 Y89.733 E0.19114 ; skirt
G1 X99.070 Y88.783 E0.19114 ; skirt
G1 X98.610 Y87.673 E0.19170 ; skirt
G1 X98.450 Y86.483 E0.19156 ; skirt
G1 X98.440 Y63.503 E3.66626 ; skirt
G1 X98.600 Y62.313 E0.19156 ; skirt
G1 X99.014 Y61.314 E0.17255 ; skirt
G1 X99.750 Y61.603 F12000.000 ; move to first skirt point
G1 X100.350 Y60.813 E0.15827 F1080 ; skirt
G1 X101.140 Y60.213 E0.15827 ; skirt
G1 X102.060 Y59.833 E0.15881 ; skirt
G1 X103.040 Y59.703 E0.15772 ; skirt
G1 X122.950 Y59.703 E3.17647 ; skirt
G1 X123.930 Y59.833 E0.15772 ; skirt
G1 X124.850 Y60.213 E0.15881 ; skirt
G1 X125.640 Y60.813 E0.15827 ; skirt
G1 X126.240 Y61.603 E0.15827 ; skirt
G1 X126.620 Y62.523 E0.15881 ; skirt
G1 X126.750 Y63.503 E0.15772 ; skirt
G1 X126.750 Y86.483 E3.66626 ; skirt
G1 X126.620 Y87.463 E0.15772 ; skirt
G1 X126.240 Y88.383 E0.15881 ; skirt
G1 X125.640 Y89.173 E0.15827 ; skirt
G1 X124.850 Y89.773 E0.15827 ; skirt
G1 X123.930 Y90.153 E0.15881 ; skirt
G1 X122.950 Y90.283 E0.15772 ; skirt
G1 X103.050 Y90.283 E3.17487 ; skirt
G1 X102.070 Y90.153 E0.15772 ; skirt
G1 X101.150 Y89.773 E0.15881 ; skirt
G1 X100.360 Y89.173 E0.15827 ; skirt
G1 X99.760 Y88.383 E0.15827 ; skirt
G1 X99.380 Y87.463 E0.15881 ; skirt
G1 X99.250 Y86.483 E0.15772 ; skirt
G1 X99.240 Y63.503 E3.66626 ; skirt
G1 X99.370 Y62.523 E0.15772 ; skirt
G1 X99.704 Y61.714 E0.13966 ; skirt
G1 F1200.000 E-0.05000 ; retract
G1 X104.250 Y64.711 F12000.000 ; move to first perimeter point
G1 E0.85000 F1200.000 ; compensate retraction
G1 X121.750 Y64.711 E2.79197 F1080 ; perimeter
G1 X121.750 Y85.289 E3.28313 ; perimeter
G1 X104.250 Y85.289 E2.79197 ; perimeter
G1 X104.250 Y64.831 E3.26398 ; perimeter
G1 X103.450 Y63.911 F12000.000 ; move to first perimeter point
G1 X122.550 Y63.911 E3.04724 F1080 ; perimeter
G1 X122.550 Y86.089 E3.53839 ; perimeter
G1 X103.450 Y86.089 E3.04724 ; perimeter
G1 X103.450 Y64.031 E3.51925 ; perimeter
G1 X104.143 Y64.311 F12000.000 ; move inwards before travel
G1 X121.180 Y65.301 F12000.000 ; move to first fill point
G1 X121.160 Y65.281 E0.00460 F1080 ; fill
G1 X120.007 Y65.281 E0.18763 ; fill
G1 X121.180 Y66.454 E0.26995 ; fill
G1 X121.180 Y67.608 E0.18763 ; fill
G1 X118.853 Y65.281 E0.53530 ; fill
G1 X117.700 Y65.281 E0.18763 ; fill
G1 X121.180 Y68.761 E0.80065 ; fill
G1 X121.180 Y69.915 E0.18763 ; fill
G1 X116.546 Y65.281 E1.06601 ; fill
G1 X115.392 Y65.281 E0.18763 ; fill
G1 X121.180 Y71.068 E1.33136 ; fill
G1 X121.180 Y72.222 E0.18763 ; fill
G1 X114.239 Y65.281 E1.59671 ; fill
G1 X113.085 Y65.281 E0.18763 ; fill
G1 X121.180 Y73.375 E1.86206 ; fill
G1 X121.180 Y74.529 E0.18763 ; fill
G1 X111.932 Y65.281 E2.12741 ; fill
G1 X110.778 Y65.281 E0.18763 ; fill
G1 X121.180 Y75.682 E2.39276 ; fill
G1 X121.180 Y76.836 E0.18763 ; fill
G1 X109.625 Y65.281 E2.65812 ; fill
G1 X108.471 Y65.281 E0.18763 ; fill
G1 X121.180 Y77.989 E2.92347 ; fill
G1 X121.180 Y79.143 E0.18763 ; fill
G1 X107.318 Y65.281 E3.18882 ; fill
G1 X106.164 Y65.281 E0.18763 ; fill
G1 X121.180 Y80.296 E3.45417 ; fill
G1 X121.180 Y81.450 E0.18763 ; fill
G1 X105.011 Y65.281 E3.71952 ; fill
G1 X104.820 Y66.243 E0.15962 ; fill
G1 X121.180 Y82.603 E3.76346 ; fill
G1 X121.180 Y83.757 E0.18763 ; fill
G1 X104.820 Y67.397 E3.76346 ; fill
G1 X104.820 Y68.550 E0.18763 ; fill
G1 X120.989 Y84.719 E3.71952 ; fill
G1 X119.836 Y84.719 E0.18763 ; fill
G1 X104.820 Y69.704 E3.45417 ; fill
G1 X104.820 Y70.857 E0.18763 ; fill
G1 X118.682 Y84.719 E3.18882 ; fill
G1 X117.529 Y84.719 E0.18763 ; fill
G1 X104.820 Y72.011 E2.92347 ; fill
G1 X104.820 Y73.164 E0.18763 ; fill
G1 X116.375 Y84.719 E2.65812 ; fill
G1 X115.222 Y84.719 E0.18763 ; fill
G1 X104.820 Y74.318 E2.39276 ; fill
G1 X104.820 Y75.471 E0.18763 ; fill
G1 X114.068 Y84.719 E2.12741 ; fill
G1 X112.915 Y84.719 E0.18763 ; fill
G1 X104.820 Y76.625 E1.86206 ; fill
G1 X104.820 Y77.778 E0.18763 ; fill
G1 X111.761 Y84.719 E1.59671 ; fill
G1 X110.607 Y84.719 E0.18763 ; fill
G1 X104.820 Y78.932 E1.33136 ; fill
G1 X104.820 Y80.085 E0.18763 ; fill
G1 X109.454 Y84.719 E1.06601 ; fill
G1 X108.300 Y84.719 E0.18763 ; fill
G1 X104.820 Y81.239 E0.80066 ; fill
G1 X104.820 Y82.392 E0.18763 ; fill
G1 X107.147 Y84.719 E0.53530 ; fill
G1 X105.993 Y84.719 E0.18763 ; fill
G1 X104.820 Y83.546 E0.26995 ; fill
G1 X104.820 Y84.699 E0.18763 ; fill
G1 X104.840 Y84.719 E0.00460 ; fill
M106 S251 ; enable fan
G1 Z0.500 F12000.000 ; move to next layer (1)
G1 X104.375 Y85.145 F12000.000 ; move to first perimeter point
G1 X104.375 Y64.855 E4.85561 F2100 ; perimeter
G1 X121.625 Y64.855 E4.12813 ; perimeter
G1 X121.625 Y85.145 E4.85561 ; perimeter
G1 X104.495 Y85.145 E4.09941 ; perimeter
G1 X103.575 Y85.945 F12000.000 ; move to first perimeter point
G1 X103.575 Y64.055 E5.23851 F2100 ; perimeter
G1 X122.425 Y64.055 E4.51103 ; perimeter
G1 X122.425 Y85.945 E5.23851 ; perimeter
G1 X103.695 Y85.945 E4.48231 ; perimeter
G1 X103.975 Y85.252 F12000.000 ; move inwards before travel
G1 X121.055 Y84.555 F12000.000 ; move to first fill point
G1 X121.035 Y84.575 E0.00680 F2100 ; fill
G1 X119.899 Y84.575 E0.27303 ; fill
G1 X121.055 Y83.419 E0.39292 ; fill
G1 X121.055 Y82.283 E0.27303 ; fill
G1 X118.763 Y84.575 E0.77905 ; fill
G1 X117.627 Y84.575 E0.27303 ; fill
G1 X121.055 Y81.147 E1.16517 ; fill
G1 X121.055 Y80.010 E0.27303 ; fill
G1 X116.491 Y84.575 E1.55130 ; fill
G1 X115.354 Y84.575 E0.27303 ; fill
G1 X121.055 Y78.874 E1.93743 ; fill
G1 X121.055 Y77.738 E0.27303 ; fill
G1 X114.218 Y84.575 E2.32355 ; fill
G1 X113.082 Y84.575 E0.27303 ; fill
G1 X121.055 Y76.602 E2.70968 ; fill
G1 X121.055 Y75.466 E0.27303 ; fill
G1 X111.946 Y84.575 E3.09580 ; fill
G1 X110.810 Y84.575 E0.27303 ; fill
G1 X121.055 Y74.330 E3.48193 ; fill
G1 X121.055 Y73.194 E0.27303 ; fill
G1 X109.674 Y84.575 E3.86805 ; fill
G1 X108.538 Y84.575 E0.27303 ; fill
G1 X121.055 Y72.058 E4.25418 ; fill
G1 X121.055 Y70.921 E0.27303 ; fill
G1 X107.401 Y84.575 E4.64030 ; fill
G1 X106.265 Y84.575 E0.27303 ; fill
G1 X121.055 Y69.785 E5.02643 ; fill
G1 X121.055 Y68.649 E0.27303 ; fill
G1 X105.129 Y84.575 E5.41256 ; fill
G1 X104.945 Y83.623 E0.23300 ; fill
G1 X121.055 Y67.513 E5.47518 ; fill
G1 X121.055 Y66.377 E0.27303 ; fill
G1 X104.945 Y82.487 E5.47518 ; fill
G1 X104.945 Y81.351 E0.27303 ; fill
G1 X120.871 Y65.425 E5.41256 ; fill
G1 X119.735 Y65.425 E0.27303 ; fill
G1 X104.945 Y80.215 E5.02643 ; fill
G1 X104.945 Y79.079 E0.27303 ; fill
G1 X118.599 Y65.425 E4.64030 ; fill
G1 X117.462 Y65.425 E0.27303 ; fill
G1 X104.945 Y77.942 E4.25418 ; fill
G1 X104.945 Y76.806 E0.27303 ; fill
G1 X116.326 Y65.425 E3.86805 ; fill
G1 X115.190 Y65.425 E0.27303 ; fill
G1 X104.945 Y75.670 E3.48193 ; fill
G1 X104.945 Y74.534 E0.27303 ; fill
G1 X114.054 Y65.425 E3.09580 ; fill
G1 X112.918 Y65.425 E0.27303 ; fill
G1 X104.945 Y73.398 E2.70968 ; fill
G1 X104.945 Y72.262 E0.27303 ; fill
G1 X111.782 Y65.425 E2.32355 ; fill
G1 X110.646 Y65.425 E0.27303 ; fill
G1 X104.945 Y71.126 E1.93743 ; fill
G1 X104.945 Y69.990 E0.27303 ; fill
G1 X109.509 Y65.425 E1.55130 ; fill
G1 X108.373 Y65.425 E0.27303 ; fill
G1 X104.945 Y68.853 E1.16517 ; fill
G1 X104.945 Y67.717 E0.27303 ; fill
G1 X107.237 Y65.425 E0.77905 ; fill
G1 X106.101 Y65.425 E0.27303 ; fill
G1 X104.945 Y66.581 E0.39292 ; fill
G1 X104.945 Y65.445 E0.27303 ; fill
G1 X104.965 Y65.425 E0.00680 ; fill
M106 S253 ; enable fan
G1 Z0.800 F12000.000 ; move to next layer (2)
G1 X104.525 Y65.028 F12000.000 ; move to first perimeter point
G1 X121.475 Y65.028 E4.05634 F2100 ; perimeter
G1 X121.475 Y84.972 E4.77271 ; perimeter
G1 X104.525 Y84.972 E4.05634 ; perimeter
G1 X104.525 Y65.148 E4.74399 ; perimeter
G1 X103.725 Y64.228 F12000.000 ; move to first perimeter point
G1 X122.275 Y64.228 E4.43924 F2100 ; perimeter
G1 X122.275 Y85.772 E5.15561 ; perimeter
G1 X103.725 Y85.772 E4.43924 ; perimeter
G1 X103.725 Y64.348 E5.12689 ; perimeter
G1 X104.418 Y64.628 F12000.000 ; move inwards before travel
G1 X120.885 Y65.598 F12000.000 ; move to first fill point
G1 X120.905 Y65.618 E0.00689 F2100 ; fill
G1 X120.905 Y66.771 E0.28093 ; fill
G1 X119.733 Y65.598 E0.40420 ; fill
G1 X118.580 Y65.598 E0.28093 ; fill
G1 X120.905 Y67.923 E0.80150 ; fill
G1 X120.905 Y69.076 E0.28093 ; fill
G1 X117.428 Y65.598 E1.19880 ; fill
G1 X116.275 Y65.598 E0.28093 ; fill
G1 X120.905 Y70.228 E1.59610 ; fill
G1 X120.905 Y71.381 E0.28093 ; fill
G1 X115.123 Y65.598 E1.99340 ; fill
G1 X113.970 Y65.598 E0.28093 ; fill
G1 X120.905 Y72.533 E2.39070 ; fill
G1 X120.905 Y73.685 E0.28093 ; fill
G1 X112.818 Y65.598 E2.78800 ; fill
G1 X111.665 Y65.598 E0.28093 ; fill
G1 X120.905 Y74.838 E3.18530 ; fill
G1 X120.905 Y75.990 E0.28093 ; fill
G1 X110.513 Y65.598 E3.58260 ; fill
G1 X109.361 Y65.598 E0.28093 ; fill
G1 X120.905 Y77.143 E3.97990 ; fill
G1 X120.905 Y78.295 E0.28093 ; fill
G1 X108.208 Y65.598 E4.37721 ; fill
G1 X107.056 Y65.598 E0.28093 ; fill
G1 X120.905 Y79.448 E4.77451 ; fill
G1 X120.905 Y80.600 E0.28093 ; fill
G1 X105.903 Y65.598 E5.17181 ; fill
G1 X105.095 Y65.943 E0.21414 ; fill
G1 X120.905 Y81.753 E5.45042 ; fill
G1 X120.905 Y82.905 E0.28093 ; fill
G1 X105.095 Y67.095 E5.45042 ; fill
G1 X105.095 Y68.247 E0.28093 ; fill
G1 X120.905 Y84.057 E5.45042 ; fill
G1 X120.097 Y84.402 E0.21414 ; fill
G1 X105.095 Y69.400 E5.17181 ; fill
G1 X105.095 Y70.552 E0.28093 ; fill
G1 X118.944 Y84.402 E4.77451 ; fill
G1 X117.792 Y84.402 E0.28093 ; fill
G1 X105.095 Y71.705 E4.37721 ; fill
G1 X105.095 Y72.857 E0.28093 ; fill
G1 X116.639 Y84.402 E3.97991 ; fill
G1 X115.487 Y84.402 E0.28093 ; fill
G1 X105.095 Y74.010 E3.58260 ; fill
G1 X105.095 Y75.162 E0.28093 ; fill
G1 X114.335 Y84.402 E3.18530 ; fill
G1 X113.182 Y84.402 E0.28093 ; fill
G1 X105.095 Y76.315 E2.78800 ; fill
G1 X105.095 Y77.467 E0.28093 ; fill
G1 X112.030 Y84.402 E2.39070 ; fill
G1 X110.877 Y84.402 E0.28093 ; fill
G1 X105.095 Y78.619 E1.99340 ; fill
G1 X105.095 Y79.772 E0.28093 ; fill
G1 X109.725 Y84.402 E1.59610 ; fill
G1 X108.572 Y84.402 E0.28093 ; fill
G1 X105.095 Y80.924 E1.19880 ; fill
G1 X105.095 Y82.077 E0.28093 ; fill
G1 X107.420 Y84.402 E0.80150 ; fill
G1 X106.267 Y84.402 E0.28093 ; fill
G1 X105.095 Y83.229 E0.40420 ; fill
G1 X105.095 Y84.382 E0.28093 ; fill
G1 X105.115 Y84.402 E0.00690 ; fill
M106 S254 ; enable fan
G1 Z1.100 F12000.000 ; move to next layer (3)
G1 X104.675 Y84.799 F12000.000 ; move to first perimeter point
G1 X104.675 Y65.201 E4.68981 F2100 ; perimeter
G1 X121.325 Y65.201 E3.98455 ; perimeter
G1 X121.325 Y84.799 E4.68981 ; perimeter
G1 X104.795 Y84.799 E3.95583 ; perimeter
G1 X103.875 Y85.599 F12000.000 ; move to first perimeter point
G1 X103.875 Y64.401 E5.07271 F2100 ; perimeter
G1 X122.125 Y64.401 E4.36744 ; perimeter
G1 X122.125 Y85.599 E5.07271 ; perimeter
G1 X103.995 Y85.599 E4.33873 ; perimeter
G1 X104.275 Y84.906 F12000.000 ; move inwards before travel
G1 X120.755 Y84.209 F12000.000 ; move to first fill point
G1 X120.735 Y84.229 E0.00700 F2100 ; fill
G1 X119.565 Y84.229 E0.28951 ; fill
G1 X120.755 Y83.039 E0.41642 ; fill
G1 X120.755 Y81.869 E0.28951 ; fill
G1 X118.395 Y84.229 E0.82585 ; fill
G1 X117.225 Y84.229 E0.28951 ; fill
G1 X120.755 Y80.699 E1.23527 ; fill
G1 X120.755 Y79.529 E0.28951 ; fill
G1 X116.055 Y84.229 E1.64469 ; fill
G1 X114.886 Y84.229 E0.28951 ; fill
G1 X120.755 Y78.359 E2.05412 ; fill
G1 X120.755 Y77.189 E0.28951 ; fill
G1 X113.716 Y84.229 E2.46354 ; fill
G1 X112.546 Y84.229 E0.28951 ; fill
G1 X120.755 Y76.019 E2.87296 ; fill
G1 X120.755 Y74.849 E0.28951 ; fill
G1 X111.376 Y84.229 E3.28239 ; fill
G1 X110.206 Y84.229 E0.28951 ; fill
G1 X120.755 Y73.679 E3.69181 ; fill
G1 X120.755 Y72.510 E0.28951 ; fill
G1 X109.036 Y84.229 E4.10123 ; fill
G1 X107.866 Y84.229 E0.28951 ; fill
G1 X120.755 Y71.340 E4.51066 ; fill
G1 X120.755 Y70.170 E0.28951 ; fill
G1 X106.696 Y84.229 E4.92008 ; fill
G1 X105.526 Y84.229 E0.28951 ; fill
