; generated by Slic3r 1.0.0 on 2014-06-17 at 09:59:26

; layer_height = 0.30
; perimeters = 2
; top_solid_layers = 4
; bottom_solid_layers = 3
; fill_density = 0.20
; perimeter_speed = 25
; infill_speed = 30
; travel_speed = 200
; nozzle_diameter = 0.30
; filament_diameter = 1.13
; extrusion_multiplier = 1
; perimeters extrusion width = 0.80mm
; infill extrusion width = 1.00mm
; solid infill extrusion width = 0.80mm
; top infill extrusion width = 0.50mm
; first layer extrusion width = 1.00mm

G21 ; set units to millimeters
M104 S200 T0 ; set temperature
M104 S200 T1 ; set temperature

M109 S200 T0 ; wait for temperature to be reached
M109 S200 T1 ; wait for temperature to be reached
G90 ; use absolute coordinates
M83 ; use relative distances for extrusion
T0 ; change extruder
M106 S153 ; enable fan
G1 Z0.300 F12000.000 ; move to next layer (0)
G1 F1200.000 E-0.05000 ; retract
G1 X96.220 Y59.573 F12000.000 ; move to first skirt point
G1 E0.30000 F1200.000 ; compensate retraction
G1 X97.010 Y58.443 E0.39474 F1080 ; skirt
G1 X97.980 Y57.473 E0.39274 ; skirt
G1 X99.110 Y56.683 E0.39474 ; skirt
G1 X100.360 Y56.093 E0.39574 ; skirt
G1 X101.700 Y55.743 E0.39651 ; skirt
G1 X103.070 Y55.623 E0.39373 ; skirt
G1 X122.920 Y55.623 E5.68307 ; skirt
G1 X124.290 Y55.743 E0.39373 ; skirt
G1 X125.630 Y56.093 E0.39651 ; skirt
G1 X126.880 Y56.683 E0.39574 ; skirt
G1 X128.010 Y57.473 E0.39474 ; skirt
G1 X128.980 Y58.443 E0.39274 ; skirt
G1 X129.770 Y59.573 E0.39474 ; skirt
G1 X130.360 Y60.823 E0.39574 ; skirt
G1 X130.710 Y62.163 E0.39651 ; skirt
G1 X130.830 Y63.533 E0.39373 ; skirt
G1 X130.830 Y86.453 E6.56201 ; skirt
G1 X130.710 Y87.823 E0.39373 ; skirt
G1 X130.360 Y89.163 E0.39651 ; skirt
G1 X129.770 Y90.413 E0.39574 ; skirt
G1 X128.980 Y91.543 E0.39474 ; skirt
G1 X128.010 Y92.513 E0.39274 ; skirt
G1 X126.880 Y93.303 E0.39474 ; skirt
G1 X125.630 Y93.893 E0.39574 ; skirt
G1 X124.290 Y94.243 E0.39651 ; skirt
G1 X122.920 Y94.363 E0.39373 ; skirt
G1 X103.070 Y94.363 E5.68307 ; skirt
G1 X101.700 Y94.243 E0.39373 ; skirt
G1 X100.360 Y93.893 E0.39651 ; skirt
G1 X99.110 Y93.303 E0.39574 ; skirt
G1 X97.980 Y92.513 E0.39474 ; skirt
G1 X97.010 Y91.543 E0.39274 ; skirt
G1 X96.220 Y90.413 E0.39474 ; skirt
G1 X95.630 Y89.163 E0.39574 ; skirt
G1 X95.280 Y87.823 E0.39651 ; skirt
G1 X95.160 Y86.453 E0.39373 ; skirt
G1 X95.160 Y63.533 E6.56201 ; skirt
G1 X95.280 Y62.163 E0.39373 ; skirt
G1 X95.630 Y60.823 E0.39651 ; skirt
G1 X96.159 Y59.703 E0.35464 ; skirt
G1 F1200.000 E-0.05000 ; retract
G1 X97.290 Y59.663 F12000.000 ; move to first skirt point
G1 E0.30000 F1200.000 ; compensate retraction
G1 X98.150 Y58.613 E0.38858 F1080 ; skirt
G1 X99.200 Y57.753 E0.38858 ; skirt
G1 X100.410 Y57.103 E0.39324 ; skirt
G1 X101.710 Y56.713 E0.38858 ; skirt
G1 X103.070 Y56.573 E0.39143 ; skirt
G1 X122.920 Y56.573 E5.68307 ; skirt
G1 X124.280 Y56.713 E0.39143 ; skirt
G1 X125.580 Y57.103 E0.38858 ; skirt
G1 X126.790 Y57.753 E0.39324 ; skirt
G1 X127.840 Y58.613 E0.38858 ; skirt
G1 X128.700 Y59.663 E0.38858 ; skirt
G1 X129.350 Y60.873 E0.39324 ; skirt
G1 X129.740 Y62.173 E0.38858 ; skirt
G1 X129.880 Y63.533 E0.39143 ; skirt
G1 X129.880 Y86.453 E6.56201 ; skirt
G1 X129.740 Y87.813 E0.39143 ; skirt
G1 X129.350 Y89.113 E0.38858 ; skirt
G1 X128.700 Y90.323 E0.39324 ; skirt
G1 X127.840 Y91.373 E0.38858 ; skirt
G1 X126.790 Y92.233 E0.38858 ; skirt
G1 X125.580 Y92.883 E0.39324 ; skirt
G1 X124.280 Y93.273 E0.38858 ; skirt
G1 X122.920 Y93.413 E0.39143 ; skirt
G1 X103.070 Y93.413 E5.68307 ; skirt
G1 X101.710 Y93.273 E0.39143 ; skirt
G1 X100.410 Y92.883 E0.38858 ; skirt
G1 X99.200 Y92.233 E0.39324 ; skirt
G1 X98.150 Y91.373 E0.38858 ; skirt
G1 X97.290 Y90.323 E0.38858 ; skirt
G1 X96.640 Y89.113 E0.39324 ; skirt
G1 X96.250 Y87.813 E0.38858 ; skirt
G1 X96.110 Y86.453 E0.39143 ; skirt
G1 X96.110 Y63.533 E6.56201 ; skirt
G1 X96.250 Y62.173 E0.39143 ; skirt
G1 X96.640 Y60.873 E0.38858 ; skirt
G1 X97.222 Y59.789 E0.35214 ; skirt
G1 F1200.000 E-0.05000 ; retract for tool change
T1 ; change extruder
G1 F1200.000 E-0.05000 ; retract
G1 X104.532 Y64.997 F12000.000 ; move to first perimeter point
G1 E0.65000 F1200.000 ; compensate retraction
G1 X121.468 Y64.997 E4.84875 F1080 ; perimeter
G1 X121.468 Y85.003 E5.72792 ; perimeter
G1 X104.532 Y85.003 E4.84875 ; perimeter
G1 X104.532 Y65.140 E5.68682 ; perimeter
G1 X103.575 Y64.040 F12000.000 ; move to first perimeter point
G1 X122.425 Y64.040 E5.39677 F1080 ; perimeter
G1 X122.425 Y85.960 E6.27594 ; perimeter
G1 X103.575 Y85.960 E5.39677 ; perimeter
G1 X103.575 Y64.183 E6.23484 ; perimeter
G1 X104.404 Y64.518 F12000.000 ; move inwards before travel
G1 X120.784 Y65.701 F12000.000 ; move to first fill point
G1 X120.764 Y65.681 E0.00817 F1080 ; fill
G1 X119.397 Y65.681 E0.39509 ; fill
G1 X120.784 Y67.067 E0.56691 ; fill
G1 X120.784 Y68.434 E0.39509 ; fill
G1 X118.031 Y65.681 E1.12565 ; fill
G1 X116.664 Y65.681 E0.39509 ; fill
G1 X120.784 Y69.801 E1.68439 ; fill
G1 X120.784 Y71.167 E0.39509 ; fill
G1 X115.297 Y65.681 E2.24313 ; fill
G1 X113.931 Y65.681 E0.39509 ; fill
G1 X120.784 Y72.534 E2.80187 ; fill
G1 X120.784 Y73.901 E0.39509 ; fill
G1 X112.564 Y65.681 E3.36061 ; fill
G1 X111.197 Y65.681 E0.39509 ; fill
G1 X120.784 Y75.267 E3.91935 ; fill
G1 X120.784 Y76.634 E0.39509 ; fill
G1 X109.831 Y65.681 E4.47809 ; fill
G1 X108.464 Y65.681 E0.39509 ; fill
G1 X120.784 Y78.001 E5.03683 ; fill
G1 X120.784 Y79.367 E0.39509 ; fill
G1 X107.097 Y65.681 E5.59557 ; fill
G1 X105.731 Y65.681 E0.39509 ; fill
G1 X120.784 Y80.734 E6.15431 ; fill
G1 X120.784 Y82.101 E0.39509 ; fill
G1 X105.216 Y66.533 E6.36471 ; fill
G1 X105.216 Y67.899 E0.39509 ; fill
G1 X120.784 Y83.467 E6.36471 ; fill
G1 X120.269 Y84.319 E0.28776 ; fill
G1 X105.216 Y69.266 E6.15432 ; fill
G1 X105.216 Y70.633 E0.39509 ; fill
G1 X118.903 Y84.319 E5.59558 ; fill
G1 X117.536 Y84.319 E0.39509 ; fill
G1 X105.216 Y71.999 E5.03684 ; fill
G1 X105.216 Y73.366 E0.39509 ; fill
G1 X116.169 Y84.319 E4.47810 ; fill
G1 X114.803 Y84.319 E0.39509 ; fill
G1 X105.216 Y74.733 E3.91936 ; fill
G1 X105.216 Y76.099 E0.39509 ; fill
G1 X113.436 Y84.319 E3.36062 ; fill
G1 X112.069 Y84.319 E0.39509 ; fill
G1 X105.216 Y77.466 E2.80188 ; fill
G1 X105.216 Y78.833 E0.39509 ; fill
G1 X110.703 Y84.319 E2.24314 ; fill
G1 X109.336 Y84.319 E0.39509 ; fill
G1 X105.216 Y80.199 E1.68440 ; fill
G1 X105.216 Y81.566 E0.39509 ; fill
G1 X107.969 Y84.319 E1.12566 ; fill
G1 X106.603 Y84.319 E0.39509 ; fill
G1 X105.216 Y82.933 E0.56692 ; fill
G1 X105.216 Y84.299 E0.39509 ; fill
G1 X105.236 Y84.319 E0.00818 ; fill
M106 S245 ; enable fan
G1 Z0.600 F12000.000 ; move to next layer (1)
G1 X104.425 Y85.087 F12000.000 ; move to first perimeter point
G1 X104.425 Y64.913 E4.82798 F1500 ; perimeter
G1 X121.575 Y64.913 E4.10420 ; perimeter
G1 X121.575 Y85.087 E4.82798 ; perimeter
G1 X104.545 Y85.087 E4.07548 ; perimeter
G1 X103.625 Y85.887 F12000.000 ; move to first perimeter point
G1 X103.625 Y64.113 E5.21087 F1800 ; perimeter
G1 X122.375 Y64.113 E4.48710 ; perimeter
G1 X122.375 Y85.887 E5.21087 ; perimeter
G1 X103.745 Y85.887 E4.45838 ; perimeter
G1 X104.025 Y85.194 F12000.000 ; move inwards before travel
G1 X121.005 Y84.497 F12000.000 ; move to first fill point
G1 X120.985 Y84.517 E0.00698 F1800 ; fill
G1 X119.818 Y84.517 E0.28798 ; fill
G1 X121.005 Y83.330 E0.41425 ; fill
G1 X121.005 Y82.164 E0.28798 ; fill
G1 X118.651 Y84.517 E0.82152 ; fill
G1 X117.485 Y84.517 E0.28798 ; fill
G1 X121.005 Y80.997 E1.22878 ; fill
G1 X121.005 Y79.830 E0.28798 ; fill
G1 X116.318 Y84.517 E1.63605 ; fill
G1 X115.151 Y84.517 E0.28798 ; fill
G1 X121.005 Y78.663 E2.04332 ; fill
G1 X121.005 Y77.496 E0.28798 ; fill
G1 X113.984 Y84.517 E2.45058 ; fill
G1 X112.817 Y84.517 E0.28798 ; fill
G1 X121.005 Y76.330 E2.85785 ; fill
G1 X121.005 Y75.163 E0.28798 ; fill
G1 X111.650 Y84.517 E3.26512 ; fill
G1 X110.484 Y84.517 E0.28798 ; fill
G1 X121.005 Y73.996 E3.67238 ; fill
G1 X121.005 Y72.829 E0.28798 ; fill
G1 X109.317 Y84.517 E4.07965 ; fill
G1 X108.150 Y84.517 E0.28798 ; fill
G1 X121.005 Y71.662 E4.48692 ; fill
G1 X121.005 Y70.495 E0.28798 ; fill
G1 X106.983 Y84.517 E4.89419 ; fill
G1 X105.816 Y84.517 E0.28798 ; fill
G1 X121.005 Y69.329 E5.30145 ; fill
G1 X121.005 Y68.162 E0.28798 ; fill
G1 X104.995 Y84.172 E5.58817 ; fill
G1 X104.995 Y83.005 E0.28798 ; fill
G1 X121.005 Y66.995 E5.58817 ; fill
G1 X121.005 Y65.828 E0.28798 ; fill
G1 X104.995 Y81.838 E5.58817 ; fill
G1 X104.995 Y80.671 E0.28798 ; fill
G1 X120.184 Y65.483 E5.30145 ; fill
G1 X119.017 Y65.483 E0.28798 ; fill
G1 X104.995 Y79.505 E4.89418 ; fill
G1 X104.995 Y78.338 E0.28798 ; fill
G1 X117.850 Y65.483 E4.48692 ; fill
G1 X116.683 Y65.483 E0.28798 ; fill
G1 X104.995 Y77.171 E4.07965 ; fill
G1 X104.995 Y76.004 E0.28798 ; fill
G1 X115.516 Y65.483 E3.67238 ; fill
G1 X114.350 Y65.483 E0.28798 ; fill
G1 X104.995 Y74.837 E3.26512 ; fill
G1 X104.995 Y73.670 E0.28798 ; fill
G1 X113.183 Y65.483 E2.85785 ; fill
G1 X112.016 Y65.483 E0.28798 ; fill
G1 X104.995 Y72.504 E2.45058 ; fill
G1 X104.995 Y71.337 E0.28798 ; fill
G1 X110.849 Y65.483 E2.04332 ; fill
G1 X109.682 Y65.483 E0.28798 ; fill
G1 X104.995 Y70.170 E1.63605 ; fill
G1 X104.995 Y69.003 E0.28798 ; fill
G1 X108.515 Y65.483 E1.22878 ; fill
G1 X107.349 Y65.483 E0.28798 ; fill
G1 X104.995 Y67.836 E0.82151 ; fill
G1 X104.995 Y66.670 E0.28798 ; fill
G1 X106.182 Y65.483 E0.41425 ; fill
G1 X105.015 Y65.483 E0.28798 ; fill
G1 X104.995 Y65.503 E0.00698 ; fill
M106 S246 ; enable fan
G1 Z0.900 F12000.000 ; move to next layer (2)
G1 X104.575 Y65.086 F12000.000 ; move to first perimeter point
G1 X121.425 Y65.086 E4.03241 F1500 ; perimeter
G1 X121.425 Y84.914 E4.74508 ; perimeter
G1 X104.575 Y84.914 E4.03241 ; perimeter
G1 X104.575 Y65.206 E4.71636 ; perimeter
G1 X103.775 Y64.286 F12000.000 ; move to first perimeter point
G1 X122.225 Y64.286 E4.41531 F1800 ; perimeter
G1 X122.225 Y85.714 E5.12797 ; perimeter
G1 X103.775 Y85.714 E4.41531 ; perimeter
G1 X103.775 Y64.406 E5.09926 ; perimeter
G1 X104.468 Y64.686 F12000.000 ; move inwards before travel
G1 X120.835 Y65.656 F12000.000 ; move to first fill point
G1 X120.855 Y65.676 E0.00685 F1800 ; fill
G1 X120.855 Y66.821 E0.27744 ; fill
G1 X119.690 Y65.656 E0.39922 ; fill
G1 X118.544 Y65.656 E0.27744 ; fill
G1 X120.855 Y67.967 E0.79158 ; fill
G1 X120.855 Y69.112 E0.27744 ; fill
G1 X117.399 Y65.656 E1.18394 ; fill
G1 X116.254 Y65.656 E0.27744 ; fill
G1 X120.855 Y70.257 E1.57631 ; fill
G1 X120.855 Y71.402 E0.27744 ; fill
G1 X115.109 Y65.656 E1.96867 ; fill
G1 X113.963 Y65.656 E0.27744 ; fill
G1 X120.855 Y72.548 E2.36104 ; fill
G1 X120.855 Y73.693 E0.27744 ; fill
G1 X112.818 Y65.656 E2.75340 ; fill
G1 X111.673 Y65.656 E0.27744 ; fill
G1 X120.855 Y74.838 E3.14577 ; fill
G1 X120.855 Y75.983 E0.27744 ; fill
G1 X110.528 Y65.656 E3.53813 ; fill
G1 X109.382 Y65.656 E0.27744 ; fill
G1 X120.855 Y77.129 E3.93049 ; fill
G1 X120.855 Y78.274 E0.27744 ; fill
G1 X108.237 Y65.656 E4.32286 ; fill
G1 X107.092 Y65.656 E0.27744 ; fill
G1 X120.855 Y79.419 E4.71522 ; fill
G1 X120.855 Y80.564 E0.27744 ; fill
G1 X105.947 Y65.656 E5.10759 ; fill
G1 X105.145 Y66.000 E0.21128 ; fill
G1 X120.855 Y81.710 E5.38219 ; fill
G1 X120.855 Y82.855 E0.27744 ; fill
G1 X105.145 Y67.145 E5.38219 ; fill
G1 X105.145 Y68.290 E0.27744 ; fill
G1 X120.855 Y84.000 E5.38219 ; fill
G1 X120.053 Y84.344 E0.21128 ; fill
G1 X105.145 Y69.436 E5.10759 ; fill
G1 X105.145 Y70.581 E0.27744 ; fill
G1 X118.908 Y84.344 E4.71522 ; fill
G1 X117.763 Y84.344 E0.27744 ; fill
G1 X105.145 Y71.726 E4.32286 ; fill
G1 X105.145 Y72.871 E0.27744 ; fill
G1 X116.618 Y84.344 E3.93049 ; fill
G1 X115.472 Y84.344 E0.27744 ; fill
G1 X105.145 Y74.017 E3.53813 ; fill
G1 X105.145 Y75.162 E0.27744 ; fill
G1 X114.327 Y84.344 E3.14577 ; fill
G1 X113.182 Y84.344 E0.27744 ; fill
G1 X105.145 Y76.307 E2.75340 ; fill
G1 X105.145 Y77.452 E0.27744 ; fill
G1 X112.037 Y84.344 E2.36104 ; fill
G1 X110.891 Y84.344 E0.27744 ; fill
G1 X105.145 Y78.598 E1.96867 ; fill
G1 X105.145 Y79.743 E0.27744 ; fill
G1 X109.746 Y84.344 E1.57631 ; fill
G1 X108.601 Y84.344 E0.27744 ; fill
G1 X105.145 Y80.888 E1.18395 ; fill
G1 X105.145 Y82.033 E0.27744 ; fill
G1 X107.456 Y84.344 E0.79158 ; fill
G1 X106.310 Y84.344 E0.27744 ; fill
G1 X105.145 Y83.179 E0.39922 ; fill
G1 X105.145 Y84.324 E0.27744 ; fill
G1 X105.165 Y84.344 E0.00685 ; fill
M106 S255 ; enable fan
G1 Z1.200 F12000.000 ; move to next layer (3)
G1 X104.725 Y84.741 F12000.000 ; move to first perimeter point
G1 X104.725 Y65.259 E4.66218 F900.000 ; perimeter
G1 X121.275 Y65.259 E3.96061 ; perimeter
G1 X121.275 Y84.741 E4.66218 ; perimeter
G1 X104.845 Y84.741 E3.93190 ; perimeter
G1 X103.925 Y85.541 F12000.000 ; move to first perimeter point
G1 X103.925 Y64.459 E5.04507 F1027.053 ; perimeter
G1 X122.075 Y64.459 E4.34351 ; perimeter
G1 X122.075 Y85.541 E5.04507 ; perimeter
G1 X104.045 Y85.541 E4.31480 ; perimeter
G1 X104.325 Y84.848 F12000.000 ; move inwards before travel
G1 X105.295 Y71.225 F12000.000 ; move to first fill point
G1 X108.195 Y65.829 E1.75379 F1027.053 ; fill
G1 X116.617 Y65.829 E2.41142 ; fill
G1 X105.295 Y77.151 E4.58425 ; fill
G1 X108.743 Y84.171 E2.23900 ; fill
G1 X118.599 Y65.829 E5.96132 ; fill
G1 X120.705 Y75.277 E2.77119 ; fill
G1 X111.811 Y84.171 E3.60120 ; fill
G1 X119.147 Y84.171 E2.10036 ; fill
G1 X120.705 Y81.271 E0.94241 ; fill
G1 Z1.500 F12000.000 ; move to next layer (4)
G1 X121.125 Y84.568 F12000.000 ; move to first perimeter point
G1 X104.875 Y84.568 E3.88882 F900.000 ; perimeter
G1 X104.875 Y65.432 E4.57928 ; perimeter
G1 X121.125 Y65.432 E3.88882 ; perimeter
G1 X121.125 Y84.448 E4.55056 ; perimeter
G1 X121.925 Y85.368 F12000.000 ; move to first perimeter point
G1 X104.075 Y85.368 E4.27172 F987.771 ; perimeter
G1 X104.075 Y64.632 E4.96217 ; perimeter
G1 X121.925 Y64.632 E4.27172 ; perimeter
G1 X121.925 Y85.248 E4.93346 ; perimeter
G1 X121.232 Y84.968 F12000.000 ; move inwards before travel
G1 X109.229 Y83.998 F12000.000 ; move to first fill point
G1 X105.445 Y81.976 E1.22832 F987.771 ; fill
G1 X105.445 Y75.427 E1.87520 ; fill
G1 X114.016 Y83.998 E3.47034 ; fill
G1 X120.555 Y79.665 E2.24582 ; fill
G1 X105.445 Y71.594 E4.90443 ; fill
G1 X109.556 Y66.002 E1.98697 ; fill
G1 X120.555 Y77.001 E4.45339 ; fill
G1 X120.555 Y69.282 E2.20998 ; fill
G1 X114.414 Y66.002 E1.99315 ; fill
G1 Z1.800 F12000.000 ; move to next layer (5)
G1 X120.975 Y65.606 F12000.000 ; move to first perimeter point
G1 X120.975 Y84.394 E4.49637 F900.000 ; perimeter
G1 X105.025 Y84.394 E3.81703 ; perimeter
G1 X105.025 Y65.606 E4.49637 ; perimeter
G1 X120.855 Y65.606 E3.78831 ; perimeter
G1 X121.775 Y64.806 F12000.000 ; move to first perimeter point
G1 X121.775 Y85.194 E4.87927 F983.716 ; perimeter
G1 X104.225 Y85.194 E4.19993 ; perimeter
G1 X104.225 Y64.806 E4.87927 ; perimeter
G1 X121.655 Y64.806 E4.17121 ; perimeter
G1 X121.375 Y65.498 F12000.000 ; move inwards before travel
G1 X120.405 Y81.673 F12000.000 ; move to first fill point
G1 X119.263 Y83.824 E0.69732 F983.716 ; fill
G1 X112.157 Y83.824 E2.03440 ; fill
G1 X120.405 Y75.577 E3.33948 ; fill
G1 X118.272 Y66.176 E2.75991 ; fill
G1 X108.903 Y83.824 E5.72072 ; fill
G1 X105.595 Y76.851 E2.20960 ; fill
G1 X116.271 Y66.176 E4.32253 ; fill
G1 X107.912 Y66.176 E2.39324 ; fill
G1 X105.595 Y70.539 E1.41451 ; fill
G1 Z2.100 F12000.000 ; move to next layer (6)
G1 X105.175 Y65.779 F12000.000 ; move to first perimeter point
G1 X120.825 Y65.779 E3.74523 F900.000 ; perimeter
G1 X120.825 Y84.221 E4.41347 ; perimeter
G1 X105.175 Y84.221 E3.74523 ; perimeter
G1 X105.175 Y65.899 E4.38476 ; perimeter
G1 X104.375 Y64.979 F12000.000 ; move to first perimeter point
G1 X121.625 Y64.979 E4.12813 F944.843 ; perimeter
G1 X121.625 Y85.021 E4.79637 ; perimeter
G1 X104.375 Y85.021 E4.12813 ; perimeter
G1 X104.375 Y65.099 E4.76766 ; perimeter
G1 X105.068 Y65.379 F12000.000 ; move inwards before travel
G1 X115.165 Y66.349 F12000.000 ; move to first fill point
G1 X120.255 Y69.034 E1.64775 F944.843 ; fill
G1 X120.255 Y76.701 E2.19510 ; fill
G1 X109.902 Y66.349 E4.19167 ; fill
G1 X105.745 Y71.717 E1.94399 ; fill
G1 X120.255 Y79.372 E4.69689 ; fill
